assets/icons/bowtie/uE60E-calendar.svg

<svg xmlns="http://www.w3.org/2000/svg" viewBox="0 0 448 448"><path d="M384 64v-32h-32v32h-256v-32h-32v32h-64v384h448v-384h-64zm32 352h-384v-224h384v224zm-384-256v-64h32v32h32v-32h256v32h32v-32h32v64h-384zm96 216.23v-29.667c10.5 7.552 22.75 11.328 36.75 11.328 8.812 0 15.69-1.862 20.594-5.61 4.937-3.743 7.405-8.953 7.405-15.64 0-6.907-3.066-12.225-9.16-15.97-6.092-3.744-14.437-5.61-25.093-5.61h-14.564v-26.11h13.47c20.405 0 30.626-6.69 30.626-20.066 0-12.592-7.844-18.883-23.534-18.883-10.5 0-20.69 3.348-30.625 10.036v-27.838c11.03-5.47 23.876-8.2 38.5-8.2 16.064 0 28.53 3.563 37.47 10.683 8.937 7.12 13.407 16.368 13.407 27.728 0 20.206-10.377 32.875-31.186 37.98v.537c11.09 1.373 19.844 5.347 26.25 11.914 6.435 6.6 9.623 14.66 9.623 24.23 0 14.46-5.34 25.89-16.06 34.308-10.72 8.412-25.533 12.62-44.405 12.62-16.19 0-29.345-2.59-39.47-7.77zm192-152.23v160h-32v-121.146c-1.8 1.667-4.423 3.258-6.87 4.74-2.45 1.497-5.047 2.837-7.79 4.053-2.742 1.184-5.603 2.214-8.55 3.056-2.98.826-5.9 1.434-8.79 1.792v-29.03c8.464-2.62 16.457-5.97 23.95-10.042 7.49-4.07 14.274-8.544 20.348-13.424h19.702z"/></svg>

<svg xmlns="http://www.w3.org/2000/svg" viewBox="0 0 448 448"><path d="M384 64V32h-32v32H96V32H64v32H0v384h448V64h-64zm32 352H32V192h384v224zM32 160V96h32v32h32V96h256v32h32V96h32v64H32zm96 216.23v-29.667c10.5 7.552 22.75 11.328 36.75 11.328 8.812 0 15.69-1.862 20.594-5.61 4.937-3.743 7.405-8.953 7.405-15.64 0-6.907-3.066-12.225-9.16-15.97-6.092-3.744-14.437-5.61-25.093-5.61h-14.564v-26.11h13.47c20.405 0 30.626-6.69 30.626-20.066 0-12.592-7.844-18.883-23.534-18.883-10.5 0-20.69 3.348-30.625 10.036V232.2c11.03-5.47 23.876-8.2 38.5-8.2 16.064 0 28.53 3.563 37.47 10.683 8.937 7.12 13.407 16.368 13.407 27.728 0 20.206-10.377 32.875-31.186 37.98v.537c11.09 1.373 19.844 5.347 26.25 11.914 6.435 6.6 9.623 14.66 9.623 24.23 0 14.46-5.34 25.89-16.06 34.308C201.153 379.792 186.34 384 167.468 384c-16.19 0-29.345-2.59-39.47-7.77zM320 224v160h-32V262.854c-1.8 1.667-4.423 3.258-6.87 4.74-2.45 1.497-5.047 2.837-7.79 4.053-2.742 1.184-5.603 2.214-8.55 3.056-2.98.826-5.9 1.434-8.79 1.792v-29.03c8.464-2.62 16.457-5.97 23.95-10.042 7.49-4.07 14.274-8.544 20.348-13.424H320z"/></svg>
